X:1
T:Title
%%score { ( 1 3 ) | ( 2 4 ) }
L:1/8
Q:1/4=100
M:6/4
K:E
V:1 treble nm="Grand Piano"
V:3 treble 
V:2 bass 
V:4 bass 
V:1
 B4 G2 G4 E2 | D2- [DG]2 [A,DF]2 E6 | B4 G2 G4 E2 | D2- [DG]2 [A,DF]2 E6 | z2 A2 G2 c4 B2 | %5
w: John~Zundel * * *|||||
 B2 A2 G2 [EG]4 F2 | z2 A2 G2 c2 [B,B]2 [Ee]2 | [B,EG]4 [A,DF]2 [G,E]6 | .[B,DF]4 [Fd]2 [^Ae]4 A2 | %9
w: ||||
 z6 c6[K:bass] | z2 B2 [C=G^A]2 ^G2- [Ge]2 [EGc]2 | [DFB]4 [CE^A]2 B2- [EB-]2 [FB]2 | B4 G2 G4 E2 | %13
w: ||||
 D2- [DG]2 [A,DF]2 z4 =D2 | [CE]2 [EA]2 [B,EG]2 c2 [B,B]2 [Ee]2 | [EG]4 [DF]2 E6 |] %16
w: |||
V:2
 [E,G,E]4 [E,B,E]2 [E,B,E]4 [E,G,]2 | z2 B,2 B,,2 [E,G,]6 | [E,G,E]4 [E,B,E]2 [E,B,E]4 [E,G,]2 | %3
 z2 B,2 B,,2 [E,G,]6 | [E,C]4 [E,B,E]2 [A,E]4 [G,B,E]2 | [F,B,D]4 [E,B,E]2 z4 D2 | %6
 G,2 C2 [E,B,E]2 [A,,A,]2 G,,2 [C,G,]2 | B,,4 B,,2 E,6 | %8
 z2[K:treble] B2 B,2[K:bass] [F,C]4 [F,CE]2 | D2 E2 [F,B,F]2 .[E,^A,F]6 | B,2 D2 D,2 z2 C2 E,2 | %11
 F,4 F,2 z F, G,2 A,2 | [E,G,E]4 [E,B,E]2 [E,B,E]4 [E,G,]2 | z2 B,2 B,,2 z2 C2 B,,2 | %14
 A,,2 C,2 E,2 [A,,A,]2 G,,2 [C,G,]2 | [B,,B,]4 [B,,A,]2 [E,G,]6 |] %16
V:3
 x12 | .[A,F]6 z6 | x12 | .[A,F]6 z6 | .E6 z6 | x12 | .E6 .E6 | x12 | x12 | %9
 B2 e2 d2 z2[K:bass] F,2 E,2 | .F6 .B,6 | z6 .[B,D]6 | x12 | .[A,F]6 [G,E]6 | .A,6 .E6 | x12 |] %16
V:4
 x12 | .B,,6 z6 | x12 | .B,,6 z6 | x12 | z6 [B,,B,]6 | .E,6 z6 | x12 | .B,,6[K:treble][K:bass] z6 | %9
 .[G,B,]6 z6 | .D,6 .E,6 | z6 B,,6 | x12 | .B,,6 .C,6 | x12 | x12 |] %16

